!! 00000] TT[WS
!!!OTL: Ba cong
!!!ARE: Asia, China, Shanxi Linxian
!! Ethnic Group: Han
!! WII, 51
!!!SCT: J0470
!!!YEM: Copyright 1995, estate of Helmut Schaffrath.
**kern
*ICvox
*Ivox
*M2/4
*k[b-e-]
*B-:
{4fff
4eee-
=1
4.ccc
8bb-
=2
2ccc}
=3
{4fff
4eee-
=4
4.ccc
8gg
=5
2bb-}
=6
{8bb-
4bb-
8bb-
=7
8ggg
4fff
8fff
=8
4ccc
4fff
=9
8ccc
8eee-
8ccc
8bb-}
=10
{8gg
4gg
8bb-
=11
4ccc
8bb-
8gg
=12
8bb-
4ff
8ee-
=13
2ff}
==
!!!AGN: Xiaodiao. Qingge, Sichun
!!!ONB: ESAC (Essen Associative Code) Database: CHINA
!!!AMT: simple duple
!!!AIN: vox
!!!EED: Helmut Schaffrath
!!!EEV: 1.0
*-
